X:537
T:Merry May the Pair Be
R:Reel
B:The Athole Collection
M:C|
L:1/8
K:A
A2Aa cAec|A2Aa cAea|1 A2Aa cAec|dBBc defa:|2 A2Aa cABG|AB,B,C DEFG||
AAGA FAED|CA,EA, FA,EG|AAGA FAEC|DB,B,C DEFG|AAGA FAED|
CA,EA, FA,Ed|cAeA aAec|dBfB bBfa||

